icons/1_Primary/SAP.svg

<svg width="1024" height="1024" fill="none" xmlns="http://www.w3.org/2000/svg"><g clip-path="url(#a)"><path d="M512 1024c282.77 0 512-229.23 512-512S794.77 0 512 0 0 229.23 0 512s229.23 512 512 512Z" fill="#9ABEFF"/><path d="M256 359.88v304.24h310.82L871 359.88H256Zm83.62 56.58h.14c22.11 0 49.06 6.29 68.56 16.22l-21 36.64C365.92 459 355.17 458 343 457.36c-18.14-1-27.26 5.51-27.4 12.5-.18 8.52 17.13 16.23 33.45 21.47 24.7 7.85 56.1 18.33 60.9 48.7l45.15-119.36h52.45l52.88 142.91-.2-142.86H621c57.84 0 85 19.58 85 64.53 0 40.36-28 64.42-75.25 64.42h-19.56l-.19 53.69-92-.09-6.38-23.27a101.675 101.675 0 0 1-31.56 4.83 100.535 100.535 0 0 1-32.32-5.12l-9.19 23.54-51.25.16 2.3-11.84c-.73.64-1.43 1.29-2.22 1.91-13.7 11-30.94 16.11-52.18 16.49h-5.48c-24.41 0-45.89-5.78-66.13-17.28l18.71-37.12c20.26 12 33 14.68 50.11 14.31 8.89-.18 15.32-1.8 19.52-6.13a14.291 14.291 0 0 0 4-9.45c.17-9.64-13.56-14.17-30.36-19.37-13.62-4.22-29.08-10-41.17-18.83-14.31-10.53-21.12-23.69-20.78-42.27a51.002 51.002 0 0 1 14.49-35.31c13.31-13.76 34.76-22.12 60.54-22.12l-.03.06Zm271.55 42.8v48.8h13.35c17.78 0 32-5.92 32-24.72 0-18.16-14.19-24.09-32-24.09l-13.35.01Zm-130.32 19.65-19.17 60.54a54.922 54.922 0 0 0 19.38 3.39 56.785 56.785 0 0 0 19-3.22l-18.87-60.71h-.34Z" fill="#fff"/></g><defs><clipPath id="a"><path fill="#fff" d="M0 0h1024v1024H0z"/></clipPath></defs></svg>

<svg width="1024" height="1024" viewBox="0 0 1024 1024" fill="none" xmlns="http://www.w3.org/2000/svg">
<g clip-path="url(#clip0_2_3393)">
<path d="M512 1024C794.77 1024 1024 794.77 1024 512C1024 229.23 794.77 0 512 0C229.23 0 0 229.23 0 512C0 794.77 229.23 1024 512 1024Z" fill="#9ABEFF"/>
<path d="M256 359.88V664.12H566.82L871 359.88H256ZM339.62 416.46H339.76C361.87 416.46 388.82 422.75 408.32 432.68L387.32 469.32C365.92 459 355.17 458 343 457.36C324.86 456.36 315.74 462.87 315.6 469.86C315.42 478.38 332.73 486.09 349.05 491.33C373.75 499.18 405.15 509.66 409.95 540.03L455.1 420.67H507.55L560.43 563.58L560.23 420.72H621C678.84 420.72 706 440.3 706 485.25C706 525.61 678 549.67 630.75 549.67H611.19L611 603.36L519 603.27L512.62 580C502.42 583.262 491.769 584.892 481.06 584.83C470.079 584.9 459.161 583.17 448.74 579.71L439.55 603.25L388.3 603.41L390.6 591.57C389.87 592.21 389.17 592.86 388.38 593.48C374.68 604.48 357.44 609.59 336.2 609.97H330.72C306.31 609.97 284.83 604.19 264.59 592.69L283.3 555.57C303.56 567.57 316.3 570.25 333.41 569.88C342.3 569.7 348.73 568.08 352.93 563.75C355.387 561.204 356.813 557.836 356.93 554.3C357.1 544.66 343.37 540.13 326.57 534.93C312.95 530.71 297.49 524.93 285.4 516.1C271.09 505.57 264.28 492.41 264.62 473.83C264.698 460.628 269.892 447.971 279.11 438.52C292.42 424.76 313.87 416.4 339.65 416.4L339.62 416.46ZM611.17 459.26V508.06H624.52C642.3 508.06 656.52 502.14 656.52 483.34C656.52 465.18 642.33 459.25 624.52 459.25L611.17 459.26ZM480.85 478.91L461.68 539.45C467.883 541.737 474.449 542.886 481.06 542.84C487.531 542.857 493.956 541.768 500.06 539.62L481.19 478.91H480.85Z" fill="white"/>
</g>
<defs>
<clipPath id="clip0_2_3393">
<rect width="1024" height="1024" fill="white"/>
</clipPath>
</defs>
</svg>
